src/Pure/16/actions/starred.svg

<?xml version="1.0" encoding="UTF-8" standalone="no"?>
<svg
   width="16"
   height="16"
   enable-background="new"
   version="1.1"
   id="svg1"
   sodipodi:docname="starred.svg"
   inkscape:version="1.4.2 (ebf0e940d0, 2025-05-08)"
   xmlns:inkscape="http://www.inkscape.org/namespaces/inkscape"
   xmlns:sodipodi="http://sodipodi.sourceforge.net/DTD/sodipodi-0.dtd"
   xmlns="http://www.w3.org/2000/svg"
   xmlns:svg="http://www.w3.org/2000/svg">
  <sodipodi:namedview
     id="namedview1"
     pagecolor="#ffffff"
     bordercolor="#000000"
     borderopacity="0.25"
     inkscape:showpageshadow="2"
     inkscape:pageopacity="0.0"
     inkscape:pagecheckerboard="0"
     inkscape:deskcolor="#d1d1d1"
     inkscape:zoom="49.6875"
     inkscape:cx="8"
     inkscape:cy="8"
     inkscape:window-width="1920"
     inkscape:window-height="1010"
     inkscape:window-x="0"
     inkscape:window-y="0"
     inkscape:window-maximized="1"
     inkscape:current-layer="svg1" />
  <defs
     id="defs1">
    <style
       id="current-color-scheme"
       type="text/css">
        .ColorScheme-Text { color:#363636; }
        .ColorScheme-NeutralText { color:#f67400; }
        .ColorScheme-PositiveText { color:#37c837; }
        .ColorScheme-NegativeText { color:#f44336; }
        .ColorScheme-Highlight { color:#3daee9; }
     </style>
  </defs>
  <path
     id="path1"
     style="fill:currentColor"
     class="ColorScheme-Text"
     d="m 7.999905,0.6210024 c -0.01388,-5.46e-5 -0.02699,8.37e-4 -0.04102,0.00195 -0.194381,0.016564 -0.361378,0.1446711 -0.427734,0.328125 L 5.665921,6.005768 H 0.4999054 c -0.4711897,8e-5 -0.6807296,0.592258 -0.3144531,0.888672 l 4.0351562,3.277344 -1.3378906,5.025391 c -0.1147838,0.440478 0.370828,0.792735 0.7539063,0.546875 l 4.3632808,-2.824219 4.363281,2.824219 c 0.383489,0.249167 0.872572,-0.104691 0.75586,-0.546875 L 11.781155,10.171784 15.816311,6.89444 C 16.183354,6.597412 15.972073,6.004 15.499905,6.005768 H 10.335843 L 8.468655,0.9510805 C 8.39677,0.7526462 8.208023,0.62182 7.999905,0.6210024 Z" />
</svg>

<?xml version="1.0" encoding="UTF-8" standalone="no"?>
<svg
   width="16"
   height="16"
   enable-background="new"
   version="1.1"
   id="svg1"
   sodipodi:docname="starred.svg"
   inkscape:version="1.4.2 (ebf0e940d0, 2025-05-08)"
   xmlns:inkscape="http://www.inkscape.org/namespaces/inkscape"
   xmlns:sodipodi="http://sodipodi.sourceforge.net/DTD/sodipodi-0.dtd"
   xmlns="http://www.w3.org/2000/svg"
   xmlns:svg="http://www.w3.org/2000/svg">
  <sodipodi:namedview
     id="namedview1"
     pagecolor="#ffffff"
     bordercolor="#000000"
     borderopacity="0.25"
     inkscape:showpageshadow="2"
     inkscape:pageopacity="0.0"
     inkscape:pagecheckerboard="0"
     inkscape:deskcolor="#d1d1d1"
     inkscape:zoom="49.6875"
     inkscape:cx="8"
     inkscape:cy="8"
     inkscape:window-width="1920"
     inkscape:window-height="1010"
     inkscape:window-x="0"
     inkscape:window-y="0"
     inkscape:window-maximized="1"
     inkscape:current-layer="svg1" />
  <defs
     id="defs1">
     <style
        id="current-color-scheme"
        type="text/css">
        .ColorScheme-Text { color:#363636; }
        .ColorScheme-NeutralText { color:#f67400; }
        .ColorScheme-PositiveText { color:#37c837; }
        .ColorScheme-NegativeText { color:#f44336; }
        .ColorScheme-Highlight { color:#3daee9; }
     </style>
  </defs>
  <path
     id="path1"
     style="fill:currentColor"
     class="ColorScheme-Text"
     d="M 7.9589844 0.62304688 A 0.5 0.5 0 0 0 7.53125 0.95117188 L 5.6660156 6.0058594 L 0.5 6.0058594 A 0.5 0.5 0 0 0 0.18554688 6.8945312 L 4.2207031 10.171875 L 2.8828125 15.197266 A 0.5 0.5 0 0 0 3.6367188 15.744141 L 8 12.919922 L 12.363281 15.744141 A 0.5 0.5 0 0 0 13.119141 15.197266 L 11.78125 10.171875 L 15.816406 6.8945312 A 0.5 0.5 0 0 0 15.5 6.0058594 L 10.335938 6.0058594 L 8.46875 0.95117188 A 0.5 0.5 0 0 0 7.9589844 0.62304688 z M 8 2.5664062 L 9.5175781 6.6796875 A 0.5 0.5 0 0 0 9.9863281 7.0058594 L 14.091797 7.0058594 L 10.900391 9.5996094 A 0.5 0.5 0 0 0 10.732422 10.117188 L 11.820312 14.203125 L 8.2714844 11.904297 A 0.5 0.5 0 0 0 7.7285156 11.904297 L 4.1816406 14.201172 L 5.2695312 10.117188 A 0.5 0.5 0 0 0 5.1015625 9.5996094 L 1.9101562 7.0058594 L 6.0136719 7.0058594 A 0.5 0.5 0 0 0 6.4824219 6.6796875 L 8 2.5664062 z " />
</svg>
